X:1
T:Title
%%score { ( 1 3 4 ) | 2 } { ( 5 7 ) | 6 } { ( 8 10 ) | ( 9 11 ) } { 12 | 13 }
L:1/8
Q:1/4=110
M:3/4
K:Eb
V:1 treble nm="Piano"
V:3 treble 
V:4 treble 
V:2 treble 
V:5 treble nm="Piano"
V:7 treble 
V:6 treble 
V:8 bass nm="Piano"
V:10 bass 
V:9 bass 
V:11 bass 
V:12 bass nm="Piano"
V:13 bass 
V:1
"^Moderato."!f! C2 C2 C2 | ed/c/ B/A/G/F/ ED | C2 C2 C2 | gf/e/ d/c/B/A/ GF | E2 E2 E2 | %5
 c'b/a/ g/f/e/d/ cd | e2 e2 e2 |!8va(! d'/e'/f'/g'/ a'/b'/c''/d''/ e''d''!8va)! | C2 C2 C2 | %9
 ed/c/ B/A/G/F/ ED | C2 C2 C2 | gf/e/ d/c/B/A/ G/A/F/G/ | E2 E2 E2 | c'b/a/ g/f/e/d/ c/B/c/d/ | %14
 e2 e2 e2 | d'/e'/f'/g'/ a'/b'/c''/d''/ e''d'' | !^!c''2 !^!c'2 !^!c2 |:"^sempre " B,2 B,2 B,2 | %18
 B,/B,/B,/B,/ B,B, B,B, | B,2 B,2 B,2 | B,/B,/B,/B,/ B,B, B,B, | E2 E2 E2 | %22
"_cresc." D/E/=E/F/ _G/=G/A/=A/ Bc | d2 d2 d2 | G/=A/=B/c/ d/e/f/g/ ed |!ff! c2 c2 c2 | %26
 e'd'/c'/ b/a/g/f/ ed | c2 c2 c2 | g'f'/e'/ d'/c'/b/a/ g/f/e/d/ | c2 c2 c2 | %30
 e''/d''/^c''/=c''/ =b'/_b'/=a'/_a'/ g'/^f'/=f'/=e'/ | e'/d'/^c'/=c'/ =b/_b/=a/_a/ gg' | %32
 c'>c'' c''4 :|[K:C]!p! G2 G2 G2 | G3 A G2 | c2 B2 c2 | d3 e d2 | G2 G2 G2 | G3{/B} A G2 | %39
 c2 B2 c2 | d3 e d2 |"_Con espress." e2 e2 e2 | g3 f e3/2-e/4e/4 | d2 c2 d2 | f3 e d3/2-d/4d/4 | %45
 _d2 B2 d2 | e3 d c2 | B2 c2 A2 | _A4 G2 | G2 G2 G2 | G3 _A G2 | c2 B2 c2 | d3 _e d2 | %53
[Q:1/4=110]"_Animato." G2 G2 G2 | _A3 _B A2 | _d2 c2 d2 | _e3 f e2 |"_cresc." =e3 f e2 | f3 _g f2 | %59
 _g3 =g _g2 |!mf! a'g'/f'/ e'/d'/c'/b/ ag | f6 | a'g'/f'/ e'/d'/c'/b/ ag | %63
 fG,/_A,/ =A,/_B,/=B,/C/ _D=D |"_cresc." _g'G,/_A,/ =A,/_B,/=B,/C/ D_E | %65
 g'G,/_A,/ =A,/_B,/=B,/C/ _E=E | _a'f' d'b ge |!ff! c2 c2 c2 | e'd'/c'/ b/a/g/f/ ed | c2 c2 c2 | %70
 g'f'/e'/ d'/c'/b/a/ g/f/e/d/ | c2 c2 c2 | e''d''/c''/ b'/a'/g'/f'/ e'd'/c'/ | b/_a/g/f/ ed c2- | %74
"_Trio." c6 |[K:F][Q:1/4=100]"^Poco piú lento"!p! c>d c>=B _B>G | F>E F>C F>A | G>_G =G>C G>B | %78
 A>_A =A>E F>A | c>d c>=B _B>G | F>E F>C F>A | A>G A>G A>G | F3/2C/4A,/4 .F,>A B>=B | %83
 c>d c>=B _B>G | F>E F>F F>A | G>G G>G G>B | A>A A>A F>A | c>d c>=B _B>G | F>F F>F F>A | %89
 A>A A>A A>G | F3/2C/4A,/4 z2 z z/ A/ | B>A B>A B>A | B>A B>A B>A | d>_d =d>_d =d>_d | %94
 e>d e3/2d/4d/4 g3/2f/4d/4 | c>d c>=B _B>G | F>E F>C F>A |"_dim." A>G A>G A>G | %98
!pp! F3/2C/4A,/4 F,2 z z/ A/ | B>B B>B B>A | B>B B>B B>A | d>d d>d d>_d | %102
[M:4/4]"_Molto dim: e rall"[Q:1/4=100] z4[Q:1/4=87][Q:1/4=83][Q:1/4=70][Q:1/4=68][Q:1/4=66]"^.7" z[Q:1/4=64][Q:1/4=62][Q:1/4=60][Q:1/4=58]"^.3" z/[Q:1/4=56][Q:1/4=54]"^.2" .e/[Q:1/4=52][Q:1/4=50] z2 | %103
[M:3/4][Q:1/4=100]"_" d>d d>c B>G | F>F F>F F>A | %105
"_Molto dim: e rall"[Q:1/4=100] A>[Q:1/4=92]"^.5"A[Q:1/4=90] A>[Q:1/4=82]"^.5"A[Q:1/4=80] A3/2[Q:1/4=72]"^.5"G/4[Q:1/4=71]"^.3"F/4[Q:1/4=85] | %106
[Q:1/4=70] F3/2[Q:1/4=62]"^.5"C/4[Q:1/4=61]"^.3"A,/4[Q:1/4=60] z2[Q:1/4=50] z2[Q:1/4=52]"^.5"[Q:1/4=51]"^.3" | %107
[Q:1/4=100] _E>F A>c _e>g | g-g/4 z/4 z/ z2 d'2- | d'6- | d'-d'/4 z/4 z/ z z/ .f/ z2 | %111
 c'>b g>_e c>A | A3/2(3B/4A,/4B,/4 d>f z2 | z6 | z6 | z6 | z6 | %117
[Q:1/4=100] z6[Q:1/4=96]"^.1"[Q:1/4=94]"^.9"[Q:1/4=91][Q:1/4=89]"^.7"[Q:1/4=85]"^.9" | %118
[Q:1/4=84]"^.6" z6[Q:1/4=80]"^.7"[Q:1/4=79]"^.4"[Q:1/4=75]"^.6"[Q:1/4=74]"^.3"[Q:1/4=70]"^.4" | %119
[Q:1/4=69]"^.1" z6[Q:1/4=65]"^.3"[Q:1/4=64][Q:1/4=60]"^.1"[Q:1/4=58]"^.9"[Q:1/4=55] | %120
[K:Eb][Q:1/4=110]"^Tempo I""_1    movimento""_mo" z6 | z6 | z6 | z6 |"_cresc." z6 | z2 z2 Bc | %126
 d2 d2 d2 | G/=A/=B/c/ d/e/f/g/ ed |!ff! c2 c2 c2 | e'd'/c'/ b/a/g/f/ ed | c2 c2 c2 | %131
 g'f'/e'/ d'/c'/b/a/ g/f/e/d/ | c2 c2 c2 | %133
!8va(! [e'^f'=a'c''e'']/4 z/4 [d'e'd'']/4 z/4 [^c'e'^c'']/4 z/4 [=c'e'=c'']/4 z/4 [=be'=b']/4 z/4 [_be'_b']/4 z/4 [=ae'=a']/4 z/4 [_ae'_a']/4 z/4 [ge'g']/4 z/4 [^fe'^f']/4 z/4 [=fe'=f']/4 z/4 [=e_e'=e']/4 z/4!8va)! | %134
 [_e_e']/4 z/4 [=ded']/4 z/4 [^ce^c']/4 z/4 [=ce=c']/4 z/4 [=Be=b]/4 z/4 [_Be_b]/4 z/4 [=Ae=a]/4 z/4 [_Ae_a]/4 z/4 [Gceg]/4 z/ z/4 [g=bd'g']/4 z/ x/4 | %135
 z [Cc]/[Dd]/ [=E=e]/[Ff]/[Gg]/[Aa]/ [Bb]/[cc']/[dd']/[=e=e']/ | %136
 f'=b/c'/ d'/e'/f'/g'/ =a'/=b'/c''/d''/ | f''/e''/d''/c''/ d''/c''/b'/a'/ b'/a'/g'/f'/ | %138
 (3g'/f'/e'/(3d'/c'/b/ (3a/g/f/(3e/d/c/ (3=B/A/G/(3F/E/D/ |!f! .c3/2 z/4 b/4 b4 | %140
 a3/2 z/4 f'/4 f'4 | e'2 a'2 c''2 | (3g'/f'/e'/(3d'/c'/=b/ (3c'/_b/a/(3g/f/e/ (3g/f/e/(3_d/c/B/ | %143
!pp! A2 z2 z2 | A>=A _A>G _G>E | =E2 z2 z2 | e>=e _e>d _d>B | c2 z2 z2 |"_cresc." a>a c>e a>_g | %149
 _d'>d' f>a d'>c' |!mf! g'>a' g'>_g' f'>d' |"_cresc." g'>a' g'>_g' f'>e' | %152
!f! (9:8:9a'3/4g'3/4_g'3/4 f'3/4d'3/4g3/4 a3/4g3/4_g3/4 | %153
 (9:8:9f3/4d3/4G3/4 A3/4G3/4_G3/4 F3/4D3/4=G3/4 | %154
"^Ritenuto molto e Sempre Cresc"[Q:1/4=110] (3A[Q:1/4=106]"^.1"G[Q:1/4=102]"^.1"_G[Q:1/4=98]"^.2" (3F[Q:1/4=94]"^.2"C[Q:1/4=90]"^.3"=G[Q:1/4=86]"^.4" !^!B[Q:1/4=80]"^.5"!^!=A | %155
[Q:1/4=74]"^.5" z[Q:1/4=68]"^.6" z[Q:1/4=62]"^.7" z[Q:1/4=56]"^.8" z[Q:1/4=50]"^.9" z[Q:1/4=45] z | %156
[Q:1/4=120]"_Animato."!fff![Q:1/4=120]"^A tempo." z2 z2 cD/C/ | gc/d/ c'd/c/ g'c'/d'/ | %158
 cd/=e/ f/g/=a/=b/ c'd'/=e'/ | f'/g'/a'/=b'/ c''d'' =e''2 | !fermata!G6 |] %161
V:2
!f! z6 | z6 | z6 | ed/c/ B/A/G/F/ ED | [G,C]2 [G,C]2 [G,C]2 | cB/A/ G/F/E/D/ CD | %6
 [EB]2 [EB]2 [EB]2 | d/e/f/g/ a/b/c'/d'/ e'd' | z6 | z6 | z6 | ed/c/ B/A/G/F/ z2 | %12
 [G,C]2 [G,C]2 [G,C]2 | cB/A/ G/F/E/D/ C/B,/C/D/ | [EB]2 [EB]2 [EB]2 | d/e/f/g/ a/b/c'/d'/ e'd' | %16
 !^!c'2 !^!c2 !^!C2 |: G,2 G,2 G,2 | G,/F,/E,/F,/ D,E, F,G, | A,2 A,2 A,2 | %20
 A,/G,/F,/G,/ E,F, G,A, | B,2 B,2 B,2 | =A,/B,/=B,/C/ _D/=D/E/=E/ FG | [GB]2 [G=A]2 [_GA]2 | %24
 [G,=B,D]/=A,/B,/C/ D/E/F/G/ ED | [CEG]2 [CFA]2 [CDF]2 | [egc']d/c/ B/A/G/F/ ED | %27
 [CEG]2 [CFA]2 [CDF]2 | [gc'e']f/e/ d/c/B/A/ G/F/E/D/ | [CEG]2 [CFA]2 [CDF]2 | %30
 [e'^f'=a']/d'/^c'/=c'/ =b/_b/=a/_a/ g/^f/=f/=e/ | e/d/^c/=c/ =B/_B/=A/_A/ [Gce][g=bd'] | %32
 [ceg]>[c'e'g'] [c'e'g']4 :|[K:C] z6 | z6 | z6 | z6 | z6 | z6 | z6 | z6 | z6 | z6 | z6 | z6 | z6 | %46
 z6 | z6 | z6 | z6 | z6 | z6 | z6 | z6 | z6 | z6 | z6 | z6 | z6 | z6 | %60
 [abd'f'][ge']/[fd']/ [ec']/[db]/[ca]/[Bg]/ [Af][Ge] | [Fd]6 | %62
 [abd'f'][ge']/[fd']/ [ec']/[db]/[ca]/[Bg]/ [Af][Ge] | .[Fd]2 z2 z2 | .[_g_e']2 z2 z2 | %65
 .[ge']2 z2 z2 | [_af'][fd'] [db][Bd] [GB][EG] | [CEG]2 [CF_A]2 [CDF]2 | [egc']d/c/ B/A/G/F/ ED | %69
 [CEG]2 [CF_A]2 [CDF]2 | [gc'e']f/e/ d/c/B/A/ G/F/E/D/ | [CEG]2 [CF_A]2 [CDF]2 | %72
 [e'g'c'']d'/c'/ b/a/g/f/ [ef_ac']d/c/ | B/_A/G/F/ [EGc]D C2- | C6 |[K:F] z6 | z6 | z6 | z6 | z6 | %80
 z6 | z6 | A,2 z2 z2 | [EGB]>[EGB] [GB]>[GB] z2 | C>[CD] z z/ C/ z2 | [CE]>[CE_G] z z/ C/ z2 | %86
 [CF]>[CF_A] [CF]>[EF] z2 | [EGB]>[EGBc] [GB]>G z2 | C>[CE] z z/ C/ z2 | %89
 [=B,DF]>[B,DFG] z z/ G/ [_B,E]2 | A,2 z2 z2 | z6 | z6 | z6 | z6 | z6 | z6 | z6 |!pp! A,2 z2 z2 | %99
 [_DEG]>[DEGA] [EG]>[EGA] z2 | [DF]>[DFA] F>[FA] z2 | [EGB]>[EGB_d] [GB]>[GBd] z2 | %102
[M:4/4] [FA]>[FAd] z2 z/ z/4 A/4 z z2 |[M:3/4] [EGB]>[EGB_d] [GB]>[GB] z2 | C>[CE] z z/ C/ z2 | %105
 [=B,DF]>[B,DFG] z z/ G/ [_B,E]2 | A,2 z2 z2 | z6 | z2 z2 d2- | d6- | d2 z2 .a'2 | c>B G>_E C>A, | %112
 A,>.B, D>F z2 | z6 | z6 | z6 | z6 | z6 | z6 | z6 |[K:Eb] z6 | z6 | z6 | z6 | z6 | z2 z2 [DF][EG] | %126
 [DGB]2 [DG=A]2 [D_GA]2 | [G,=B,D]/=A,/B,/C/ D/E/F/G/ ED | [CEG]2 [CFA]2 [CDF]2 | %129
 [egc']d/c/ B/A/G/F/ ED | [CEG]2 [CFA]2 [CDF]2 | %131
 [gb_d'=e'][ac']/[gb]/ [fa]/[eg]/[df]/[ce]/ [Bd]/[Ac]/[GB]/[FA]/ | [CEG]2 [CFA]2 [CDF]2 | %133
 [E^F=Ace]/4 [DEd]/4 z/4 [^CE^c]/4 z/4 [=CE=c]/4 z/4 [=B,E=B]/4 z/4 [_B,E_B]/4 z/4 [=A,E=A]/4 z/4 [_A,E_A]/4 z/4 [G,EG]/4 z/4 [^F,E^F]/4 z/4 [=F,_E=F]/4 z/4 [=E,_E=E]/4 z/4 [_E,_E_E]/4 | %134
 z/4 [E,E]/4 z/4 [D,E,D]/4 z/4 [^C,E,^C]/4 z/4 [=C,E,=C]/4 z/4 [=B,,E,=B,]/4 z/4 [_B,,E,_B,]/4 z/4 [=A,,E,=A,]/4 z/4 [_A,,E,_A,]/4 z/4 [G,,C,E,G,]/4 z/4 z/ [G,=B,DG]/4 z/4 z/4 | %135
 z6 | z6 | z6 | .[gc'e']2 z2 .[DF]2 | .[EG]3/2 z/4 [cg]/4 [cg]4 | [cf]3/2 z/4 [gd']/4 [gd']4 | %141
 [cgc']2 [fc'f']2 [af'a']2 | .[gc'e']2 .[ce]2 .[GB_d]2 | [CE]2 z2 z2 | [CE_G]>[CEGA] [EG]>[EF] z2 | %145
 [A,_D]2 z2 z2 | [GB_d]>[GBde] [Bd]>B z2 | [EA]2 z2 z2 | [ce_g]>[=Bceg] z2 z2 | %149
 [fa]>[efa] z2 _d>c | [g=bd'f']>a g>_g f>d | [gc'e']>a g>_g f>e | %152
 (9:8:9[a=bd'f']3/4g3/4_g3/4 f3/4d3/4G3/4 [A=Bdf]3/4G3/4_G3/4 | %153
 (9:8:9F3/4D3/4G,3/4 [A,=B,DF]3/4G,3/4_G,3/4 F,3/4D,3/4=G,3/4 | %154
 (3[A,CF]G,_G, (3F,C,=G, !^![B,_DF]!^![=A,DF] | z6 | z2 z2 .[CE]2 | .[G=B]2 .[ce]2 .[g=b]2 | %158
 [C=EG]D/E/ F/G/=A/=B/ [cdfa]d/=e/ | f/g/a/=b/ [c'=e'g'][d'g'c''] [e'g'c'']2 | !fermata![G,C=E]6 |] %161
V:3
 x6 | x6 | x6 | x6 | x6 | x6 | x6 |!8va(! x6!8va)! | x6 | x6 | x6 | x6 | x6 | x6 | x6 | x6 | x6 |: %17
 x6 | x6 | x6 | x6 | x6 | x6 | x6 | x6 | x6 | x6 | x6 | x6 | x6 | x6 | x6 | x6 :|[K:C] x6 | x6 | %35
 x6 | x6 | x6 | x6 | x6 | x6 | x6 | x6 | x6 | x6 | x6 | x6 | x6 | x6 | x6 | x6 | x6 | x6 | x6 | %54
 x6 | x6 | x6 | x6 | x6 | x6 | x6 | x6 | x6 | x6 | x6 | x6 | x6 | x6 | x6 | x6 | x6 | x6 | x6 | %73
 x6 | x6 |[K:F] x6 | x6 | x6 | x6 | x6 | x6 | x6 | x6 | x6 | x6 | x6 | x6 | x6 | x6 | x6 | x6 | %91
 x6 | x6 | x6 | x6 | x6 | x6 | x6 | x6 | x6 | x6 | x6 | %102
[M:4/4] e>"^.5"e"^.3" e3/2"^.8"d/4"^.8"d/4 g/4"^.6"_g/4"^.5"f/4"^.4"d/4(3B/4"^.9".=B3/4"^.8"d/- d2 | %103
[M:3/4] x6 | x6 | x6 | x6 | x6 | z f/4g/4f/ d>B z2 | x6 | z c'/4d'/4c'/ a3/2 z/4 z/8 f/8- f z | %111
 x6 | x6 | x6 | x6 | x6 | x6 | x6 | x6 | x6 |[K:Eb] x6 | x6 | x6 | x6 | x6 | x6 | x6 | x6 | x6 | %129
 x6 | x6 | x6 | x6 |!8va(! x6!8va)! | x6 | x6 | x6 | x6 | x6 | x6 | x6 | x6 | x6 | x6 | x6 | x6 | %146
 x6 | x6 | x6 | x6 | x6 | x6 | x6 | x6 | x6 | x6 | x6 | x6 | x6 | x6 | x6 |] %161
V:4
 x6 | x6 | x6 | x6 | x6 | x6 | x6 |!8va(! x6!8va)! | x6 | x6 | x6 | x6 | x6 | x6 | x6 | x6 | x6 |: %17
 x6 | x6 | x6 | x6 | x6 | x6 | x6 | x6 | x6 | x6 | x6 | x6 | x6 | x6 | x6 | x6 :|[K:C] x6 | x6 | %35
 x6 | x6 | x6 | x6 | x6 | x6 | x6 | x6 | x6 | x6 | x6 | x6 | x6 | x6 | x6 | x6 | x6 | x6 | x6 | %54
 x6 | x6 | x6 | x6 | x6 | x6 | x6 | x6 | x6 | x6 | x6 | x6 | x6 | x6 | x6 | x6 | x6 | x6 | x6 | %73
 x6 | x6 |[K:F] x6 | x6 | x6 | x6 | x6 | x6 | x6 | x6 | x6 | x6 | x6 | x6 | x6 | x6 | x6 | x6 | %91
 x6 | x6 | x6 | x6 | x6 | x6 | x6 | x6 | x6 | x6 | x6 |[M:4/4] x8 |[M:3/4] x6 | x6 | x6 | x6 | x6 | %108
 x6 | x6 | z2 z z/ z/8 c3/8- c z | x6 | x6 | x6 | x6 | x6 | x6 | x6 | x6 | x6 |[K:Eb] x6 | x6 | %122
 x6 | x6 | x6 | x6 | x6 | x6 | x6 | x6 | x6 | x6 | x6 |!8va(! x6!8va)! | x6 | x6 | x6 | x6 | x6 | %139
 x6 | x6 | x6 | x6 | x6 | x6 | x6 | x6 | x6 | x6 | x6 | x6 | x6 | x6 | x6 | x6 | x6 | x6 | x6 | %158
 x6 | x6 | x6 |] %161
V:5
!f! z6 | z6 | z6 | z6 | z6 | z6 | z6 | z6 | z6 | z2 z2 E/F/D/E/ | z6 | z2 z2 ED | z6 | z6 | z6 | %15
 z2 z2 e'/f'/d'/e'/ | z6 |: z6 | z6 | z6 | z6 | z6 | z6 | z6 | z6 | z6 | z6 | z6 | z6 | z6 | z6 | %31
 z6 | z6 :|[K:C]!p! E2 E2 E2 | F4 F2 | G2 G2 G2 | G4 G2 | E2 E2 E2 | F4 F2 | G2 G2 G2 | G4 G2 | %41
 c2 c2 c2 | c4 c2 | B2 B2 B2 | B4 B2 | A2 A2 A2 | _G3 =G _A=A | G2 G2 _G2 | FE ._E2 B,2 | %49
 _E2 E2 E2 | F4 F2 | G2 G2 G2 | G4 G2 | _E2 E2 E2 | _G4 G2 | _A2 A2 A2 | c4 c2 |"_cresc." c4 c2 | %58
 _d4 d2 | c4 c2 |!mf! z6 | z6 | z6 | z6 |"_cresc." z6 | z6 | z6 |!ff! z6 | z6 | z6 | z6 | z6 | z6 | %73
 z6 | z6 |[K:F]!p! z2 B4 | z2 F4 | z2 E4 | z2 F4 | z2 B4 | z2 F4 | F4 E2 | z6 | z6 | z6 | z6 | z6 | %87
 z6 | z6 | z6 | z6 | z2 G4 | z2 F4 | z2 B4 | A4 z2 | z2 B4 | z2 F4 |"_dim." F4 E2 |!pp! z6 | z6 | %100
 z6 | z6 |[M:4/4] z8 |[M:3/4] z6 | z6 | z6 | z6 | z6 | z6 | z6 | z6 | z6 | z2 z2 D2- | D6 | C6 | %115
 D6 | C6 | C6 | C6 | C6 |[K:Eb]!pp! B,2 B,2 B,2 | B,/B,/B,/B,/ B,B, B,B, | B,2 B,2 B,2 | %123
 B,/B,/B,/B,/ B,B, B,B, |"_cresc." E2 E2 E2 | D/E/=E/F/ _G/=G/A/=A/ z2 | z6 | z6 |!ff! z6 | z6 | %130
 z6 | z6 | z6 | z6 | z6 | z6 | f=B/c/ d/e/f/g/ =a/=b/c'/d'/ | f'/e'/d'/c'/ d'/c'/b/a/ b/a/g/f/ | %138
 z6 |!f! z6 | z6 | z6 | z6 |!pp! z E/E/ E/E/E/E/ E/E/E/E/ | z6 | %145
 z =E,/E,/ E,/E,/E,/E,/ E,/E,/E,/E,/ | z6 | z2 z2 .C2 |"_cresc." z6 | z6 |!mf! z6 |"_cresc." z6 | %152
!f! z6 | z6 | z6 | !^!AG _GF =B,G |!fff! CD,/C,/ GC/D/ z2 | z6 | z6 | z6 | z6 |] %161
V:6
!f! z6 | z6 | z6 | z6 | z6 | z6 | z6 | z6 | z6 | z6 | z6 | z6 | z6 | z6 | z6 | z6 | z6 |: z6 | z6 | %19
 z6 | z6 | z6 | z6 | z6 | z6 | z6 | z6 | z6 | z6 | z6 | z6 | z6 | z6 :|[K:C]!p! C2 C2 C2 | D4 D2 | %35
 E2 E2 E2 | F4 F2 | C2 C2 C2 | D4 D2 | E2 E2 E2 | F4 F2 | [G_B]2 [GB]2 [GB]2 | [FA]4 [FA]2 | %43
 [FA]2 [FA]2 [FA]2 | [E_A]4 [EA]2 | [EG]2 [EG]2 [EG]2 | D4 z2 | z2 _E2 C2 | z6 | C2 C2 C2 | D4 D2 | %51
 _E2 E2 E2 | F4 F2 | C2 C2 C2 | [C_E]4 [CE]2 | F2 F2 F2 | [_G_A]4 [GA]2 | [_G_A]4 [GA]2 | %58
 [F_A]4 [FA]2 | [_E_A]4 [EA]2 | z6 | z6 | z6 | z6 | z6 | z6 | z6 | z6 | z6 | z6 | z6 | z6 | z6 | %73
 z6 | z6 |[K:F] z2 [EG]4 | z2 C4 | z2 C4 | z2 C4 | z2 [EG]4 | z2 C4 | [=B,D]4 _B,2 | z6 | z6 | z6 | %85
 z6 | z6 | z6 | z6 | z6 | z6 | z2 [_DE]4 | z2 D4 | z2 [EG]4 | F4 z2 | z2 [EG]4 | z2 C4 | %97
 [=B,D]4 _B,2 | z6 | z6 | z6 | z6 |[M:4/4] z8 |[M:3/4] z6 | z6 | z6 | z6 | z6 | z6 | z6 | z6 | z6 | %112
 z2 z2 D,2- | D,6 | C,6 | D,6 | C,6 | C,6 | C,6 | C,6 |[K:Eb]!pp! [E,G,]2 [E,G,]2 [E,G,]2 | %121
 [E,G,]/[D,F,]/[C,E,]/[D,F,]/ [B,,D,][C,E,] [D,F,][E,G,] | [F,A,]2 [F,A,]2 [F,A,]2 | %123
 [F,A,]/[E,G,]/[D,F,]/[E,G,]/ [C,E,][D,F,] [E,G,][F,A,] | [G,B,]2 [A,C]2 [G,C]2 | %125
 [_G,=A,]/[=G,B,]/[_A,=B,]/[=A,C]/ [_B,_D]/[=B,=D]/[CE]/[C=E]/ z2 | z6 | z6 | z6 | z6 | z6 | z6 | %132
 z6 | z6 | z6 | z6 | z6 | z6 | z6 | z6 | z6 | z6 | z6 | %143
 z [A,C]/[A,C]/ [A,C]/[A,C]/[A,C]/[A,C]/ [A,C]/[A,C]/[A,C]/[A,C]/ | z6 | %145
 z [A,,_D,]/[A,,D,]/ [A,,D,]/[A,,D,]/[A,,D,]/[A,,D,]/ [A,,D,]/[A,,D,]/[A,,D,]/[A,,D,]/ | z6 | %147
 z [A,,A,]/[B,,A,]/ [C,A,]/[_D,A,]/[=D,A,]/[E,A,]/ .[=E,A,][_E,A,]/[A,,A,]/ | z6 | z6 | z6 | z6 | %152
 z6 | z6 | z6 | !^![A,_DF][G,A,D] [_G,A,D][F,A,D] [=B,,_D,A,][G,=B,=DF] | .[C,E,]2 .[G,=B,]2 z2 | %157
 z6 | z6 | z6 | z6 |] %161
V:7
 x6 | x6 | x6 | x6 | x6 | x6 | x6 | x6 | x6 | x6 | x6 | x6 | x6 | x6 | x6 | x6 | x6 |: x6 | x6 | %19
 x6 | x6 | x6 | x6 | x6 | x6 | x6 | x6 | x6 | x6 | x6 | x6 | x6 | x6 :|[K:C] x6 | x6 | x6 | x6 | %37
 x6 | x6 | x6 | x6 | x6 | x6 | x6 | x6 | x6 | x6 | x6 | z2 z D3 | x6 | x6 | x6 | x6 | x6 | x6 | %55
 x6 | x6 | x6 | x6 | x6 | x6 | x6 | x6 | x6 | x6 | x6 | x6 | x6 | x6 | x6 | x6 | x6 | x6 | x6 | %74
 x6 |[K:F] x6 | x6 | x6 | x6 | x6 | x6 | x6 | x6 | x6 | x6 | x6 | x6 | x6 | x6 | x6 | x6 | x6 | %92
 x6 | x6 | x6 | x6 | x6 | x6 | x6 | x6 | x6 | x6 |[M:4/4] x8 |[M:3/4] x6 | x6 | x6 | x6 | x6 | x6 | %109
 x6 | x6 | x6 | x6 | x6 | x6 | x6 | x6 | x6 | x6 | x6 |[K:Eb] x6 | x6 | x6 | x6 | x6 | x6 | x6 | %127
 x6 | x6 | x6 | x6 | x6 | x6 | x6 | x6 | x6 | x6 | x6 | x6 | x6 | x6 | x6 | x6 | x6 | x6 | x6 | %146
 x6 | z C/C/ C/C/C/C/ z/ G,/C/C/ | x6 | x6 | x6 | x6 | x6 | x6 | x6 | x6 | x6 | x6 | x6 | x6 | %160
 x6 |] %161
V:8
!f! z6 | z6 | z6 | z6 | z6 | z6 | z6 | z6 | z6 | z6 | z6 | z6 | z6 | z6 | z6 | z6 | z6 |: z6 | %18
 E,/D,/C,/D,/ B,,C, D,E, | F,2 F,2 F,2 | F,/E,/D,/E,/ C,D, E,F, | G,2 G,2 G,2 | %22
 _G,/=G,/A,/=A,/ B,/=B,/C/_D/ =DE | z6 | z6 | z6 | z6 | z6 | z6 | z6 | z6 | z6 | z6 :|[K:C]!p! z6 | %34
 z6 | z6 | z6 | z6 | z6 | z6 | z6 | z6 | z6 | z6 | z6 | z6 | z6 | z6 | _E,=E, F,_G, =G,F, | %49
 z .G, ._E,.G, .E,.C, | z .G, ._G,.=G, .D,.B,, | z .G, ._G,.=G, .C,._A,, | %52
 z .G, ._G,.=G, .B,,.G,, | z6 | z6 | z6 | z6 |"_cresc." z ._A, .G,.A, .C,._A,, | %58
 z ._A, .G,.A, ._D,._A,, | z ._A, .G,.A, ._E,._A,, |!mf! G,,6- | %61
 G,,G,,/_A,,/ =A,,/_B,,/=B,,/C,/ _D,=D, | z6 | z G,,/_A,,/ =A,,/_B,,/=B,,/C,/ _D,=D, | %64
"_cresc." z G,,/_A,,/ =A,,/_B,,/=B,,/C,/ D,_E, | z G,,/_A,,/ =A,,/_B,,/=B,,/C,/ _E,=E, | %66
 z G,,/A,,/ B,,/C,/D,/E,/ F,/G,/A,/B,/ |!ff! z6 | z6 | z6 | z6 | z6 | z6 | z6 | z6 | %75
[K:F]!p! C>D C>=B, _B,>G, | F,>E, F,>C, F,>A, | G,>_G, =G,>C, G,>B, | A,>_A, =A,>E, F,>A, | %79
 C>D C>=B, _B,>G, | F,>E, F,>C, F,>A, | A,>G, A,>G, A,>G, | F,3/2C,/4A,,/4 .F,,>A, B,>=B, | %83
 C>D C>=B, _B,>G, | A,>A, F,>F, F,>A, | B,>B, G,>G, G,>B, | A,>A, A,>A, F,>A, | C>D C>=B, _B,>G, | %88
 A,>A, F,>F, F,>A, | A,>A, A,>A, A,>G, | F,3/2C,/4A,,/4 F,,3 z/ A,/ | B,>A, B,>A, B,>A, | %92
 B,>A, B,>A, B,>A, | D>_D =D>_D =D>_D | E>D E3/2D/4D/4 G3/2F/4D/4 | C>D C>=B, _B,>G, | %96
 F,>E, F,>C, F,>A, |"_dim." A,>G, A,>G, A,>G, |!pp! F,3/2C,/4A,,/4 F,,3/2C,/4A,,/4 .F,,>A, | %99
 B,>B, B,>A, B,>A, | B,>B, B,>B, B,>A, | D>D D>D D>_D |[M:4/4] z4 z z/ .E/ z2 | %103
[M:3/4] D>D D>C B,>G, | A,>A, F,>F, F,>A, | A,>A, A,>A, A,3/2G,/4F,/4 | %106
 F,3/2C,/4A,,/4 F,,3/2C,/4A,,/4 .F,,2 | z6 | z6 | b>_d' b>d' b>d' | a2 z2 .a2 | %111
 C,>D, _E,>F, _G,2- | G,>F, D,2 z2 | B,>_D B,>D B,>D | A,>_D A,>D A,>D | B,>_D B,>D B,>D | %116
 A,>_D A,>D A,>D |"^Dim: e Rall. molto." _A,>=B, A,>B, A,>B, | G,>_D G,>D G,>D | %119
 _G,>=B, G,>B, G,>B, |[K:Eb]!pp! B,,2 B,,2 B,,2 | B,,/B,,/B,,/B,,/ B,,B,, B,,B,, | B,,2 B,,2 B,,2 | %123
 B,,/B,,/B,,/B,,/ B,,A,, G,,F,, |"_cresc." E,,2 A,,2 C,2 | %125
 D,/_D,/C,/=B,,/ _B,,/A,,/A,,/G,,/ F,,E,, | D,2 D,2 D,2 | G,,/=A,,/=B,,/C,/ D,/E,/F,/G,/ E,D, | %128
!ff! C,2 C,2 C,2 | ED/C/ B,/A,/G,/F,/ E,D, | C,2 C,2 C,2 | GF/E/ D/C/B,/A,/ G,/F,/E,/D,/ | %132
 C,C, z C, z C, | z6 | z6 | z6 | z6 | z2 A2 c2 | (3G/f/e/(3d/c/B/ (3A/G/F/(3E/D/C/ z2 | %139
!f! z C,/D,/ =E,/F,/G,/A,/ B,/C/D/=E/ | F=B,/C/ D/E/F/G/ =A/=B/c/d/ | f/e/d/c/ d/c/B/A/ B/A/G/F/ | %142
 z6 |!pp! z6 | z6 | z6 | z6 | z6 |"_cresc." A>A C>E A>_G | _d>d F>A d>c |!mf! G>A G>_G F>D | %151
"_cresc." G>A G>_G F>E |!f! (3AG_G z2 z2 | z6 | z6 | z6 |!fff! z6 | z6 | z6 | F/G/A/=B/ cd =e2 | %160
 z6 |] %161
V:9
!f! z6 | z6 | z6 | z6 | z6 | z6 | z6 | z6 | z6 | z6 | z6 | z6 | z6 | z6 | z6 | z6 | z6 |: z6 | z6 | %19
 z6 | z6 | z6 | z6 | z6 | z6 | z6 | z6 | z6 | z6 | z6 | z6 | z6 | z6 :|[K:C]!p! z6 | z6 | z6 | z6 | %37
 z6 | z6 | z6 | z6 | z6 | z6 | z6 | z6 | z6 | z6 | z6 | z6 | z6 | z6 | z6 | z6 | z6 | z6 | z6 | %56
 z6 | z6 | z6 | z6 | z6 | z6 | z6 | z6 | z6 | z6 | z6 | z6 | z6 | z6 | z6 | z6 | z6 | z6 | z6 | %75
[K:F] z6 | z6 | z6 | z6 | z6 | z6 | z6 | F,,2 z2 z2 | [E,G,B,]>[E,G,B,C] [G,B,]>G, z2 | %84
 F,>[E,F,] z z/ C,/ z2 | G,>[_G,=G,] z z/ C,/ z2 | F,>[F,_A,] F,>[E,F,] z2 | %87
 [E,G,B,]>[E,G,B,C] [G,B,]>G, z2 | F,>[E,F,] z z/ C,/ z2 | G,,>[G,,G,] z z/ [G,,G,]/ C,2 | %90
 F,,2 z2 z2 | z6 | z6 | z6 | z6 | z6 | z6 | z6 |!pp! F,,2 z z/ C,,/4A,,,/4 .F,,,2 | %99
 [_D,E,G,]>[D,E,G,A,] [E,G,]>[D,E,G,] z2 | [D,F,]>[D,F,A,] F,>[F,A,] z2 | %101
 [E,G,B,]>[E,G,B,_D] [G,B,]>[G,B,D] z2 |[M:4/4] [F,A,]>[F,A,D] A,2 z/ z/4 A,/4 z z2 | %103
[M:3/4] [E,G,B,]>[E,G,B,_D] [G,B,]>[G,B,] z2 | F,>[E,F,] z z/ C,/ z2 | %105
 G,,>[G,,G,] G,,>[G,,G,] C,2 | F,,2 z2 z2 | z6 | z6 | [eg]>[_degb] [eg]>[degb] [eg]>[degb] | %110
 z c/4d/4c/ A3/2 z/8 c3/8- c z | A,,>B,, C,>D, _E,2- | E,>D, B,,2 z2 | %113
 [E,G,]>[_D,E,G,B,] [E,G,]>[D,E,G,B,] [E,G,]>[D,E,G,B,] | F,>[_D,F,A,] F,>[D,F,A,] F,>[D,F,A,] | %115
 [E,G,]>[_D,E,G,B,] [E,G,]>[D,E,G,B,] [E,G,]>[D,E,G,B,] | F,>[_D,F,A,] F,>[D,F,A,] F,>[D,F,A,] | %117
 F,>[=B,,F,_A,] F,>[B,,F,A,] F,>[B,,F,A,] | E,>[_D,E,G,] E,>[D,E,G,] E,>[D,E,G,] | %119
 _E,>[=B,,E,_G,] E,>[B,,E,G,] E,>[B,,E,G,] |[K:Eb]!pp! B,,,2 B,,,2 B,,,2 | %121
 B,,,/B,,,/B,,,/B,,,/ B,,,B,,, B,,,B,,, | B,,,2 B,,,2 B,,,2 | %123
 B,,,/B,,,/B,,,/B,,,/ B,,,A,,, G,,,F,,, | E,,,2 A,,,2 C,,2 | z6 | %126
 [D,,G,,B,,]2 [D,,G,,=A,,]2 [D,,_G,,A,,]2 | %127
 [G,,,=B,,,D,,]/=A,,,/B,,,/C,,/ D,,/E,,/F,,/G,,/ E,,D,, | [C,,E,,G,,]2 [C,,F,,A,,]2 [C,,D,,F,,]2 | %129
 [E,G,C]D,/C,/ B,,/A,,/G,,/F,,/ E,,D,, | [C,,E,,G,,]2 [C,,F,,A,,]2 [C,,D,,F,,]2 | %131
 [G,B,_D=E][A,C]/[G,B,]/ [F,A,]/[E,G,]/[D,F,]/[C,E,]/ [B,,D,]/[A,,C,]/[G,,B,,]/[F,,A,,]/ | %132
 [C,,E,,G,,][C,,E,,G,,] z [C,,F,,A,,] z [C,,D,,F,,] | z6 | z6 | z6 | z6 | z2 [F,CF]2 [A,FA]2 | %138
 .[G,CE]2 z2 z2 | z6 | z6 | z6 | z6 | z6 | z6 | z6 | z6 | z6 | [CE_G]>[=B,CEG] z2 z2 | %149
 [FA]>[EFA] z2 _D>C | [G,=B,DF]>A, G,>_G, F,>D, | [G,CE]>A, G,>_G, F,>E, | (3[A,=B,DF]G,_G, z2 z2 | %153
 z6 | z6 | z6 | z6 | z6 | z6 | F,/G,/A,/=B,/ [C=EG][DGc] [EGc]2 | z6 |] %161
V:10
 x6 | x6 | x6 | x6 | x6 | x6 | x6 | x6 | x6 | x6 | x6 | x6 | x6 | x6 | x6 | x6 | x6 |: x6 | x6 | %19
 x6 | x6 | x6 | x6 | x6 | x6 | x6 | x6 | x6 | x6 | x6 | x6 | x6 | x6 :|[K:C] x6 | x6 | x6 | x6 | %37
 x6 | x6 | x6 | x6 | x6 | x6 | x6 | x6 | x6 | x6 | x6 | x6 | x6 | x6 | x6 | x6 | x6 | x6 | x6 | %56
 x6 | x6 | x6 | x6 | x6 | x6 | x6 | x6 | x6 | x6 | x6 | x6 | x6 | x6 | x6 | x6 | x6 | x6 | x6 | %75
[K:F] x6 | x6 | x6 | x6 | x6 | x6 | x6 | x6 | x6 | x6 | x6 | x6 | x6 | x6 | x6 | x6 | x6 | x6 | %93
 x6 | x6 | x6 | x6 | x6 | x6 | x6 | x6 | x6 | %102
[M:4/4] E>E E3/2D/4D/4 G/4_G/4F/4D/4(3B,/4.=B,3/4D/- D2 |[M:3/4] x6 | x6 | x6 | x6 | x6 | x6 | x6 | %110
 z2 z z/ f/- f z | x6 | x6 | x6 | x6 | x6 | x6 | x6 | x6 | x6 |[K:Eb] x6 | x6 | x6 | x6 | x6 | x6 | %126
 x6 | x6 | x6 | x6 | x6 | x6 | x6 | x6 | x6 | x6 | x6 | x6 | x6 | x6 | x6 | x6 | x6 | x6 | x6 | %145
 x6 | x6 | x6 | x6 | x6 | x6 | x6 | x6 | x6 | x6 | x6 | x6 | x6 | x6 | x6 | x6 |] %161
V:11
 x6 | x6 | x6 | x6 | x6 | x6 | x6 | x6 | x6 | x6 | x6 | x6 | x6 | x6 | x6 | x6 | x6 |: x6 | x6 | %19
 x6 | x6 | x6 | x6 | x6 | x6 | x6 | x6 | x6 | x6 | x6 | x6 | x6 | x6 :|[K:C] x6 | x6 | x6 | x6 | %37
 x6 | x6 | x6 | x6 | x6 | x6 | x6 | x6 | x6 | x6 | x6 | x6 | x6 | x6 | x6 | x6 | x6 | x6 | x6 | %56
 x6 | x6 | x6 | x6 | x6 | x6 | x6 | x6 | x6 | x6 | x6 | x6 | x6 | x6 | x6 | x6 | x6 | x6 | x6 | %75
[K:F] x6 | x6 | x6 | x6 | x6 | x6 | x6 | x6 | x6 | x6 | x6 | x6 | x6 | x6 | x6 | x6 | x6 | x6 | %93
 x6 | x6 | x6 | x6 | x6 | x6 | x6 | x6 | x6 |[M:4/4] x8 |[M:3/4] x6 | x6 | x6 | x6 | x6 | x6 | x6 | %110
 f2 z z/ F/ z2 | x6 | x6 | x6 | x6 | x6 | x6 | x6 | x6 | x6 |[K:Eb] x6 | x6 | x6 | x6 | x6 | x6 | %126
 x6 | x6 | x6 | x6 | x6 | x6 | x6 | x6 | x6 | x6 | x6 | x6 | x6 | x6 | x6 | x6 | x6 | x6 | x6 | %145
 x6 | x6 | x6 | x6 | x6 | x6 | x6 | x6 | x6 | x6 | x6 | x6 | x6 | x6 | x6 | x6 |] %161
V:12
!f! C,2 C,2 C,2 | ED/C/ B,/A,/G,/F,/ E,D, | C,2 C,2 C,2 | GF/E/ D/C/B,/A,/ G,F, | C,2 C,2 C,2 | %5
 GF/E/ D/C/B,/A,/ G,F, | G,2 G,2 G,2 | D/D/D/D/ D/D/D/D/ FF | C,2 C,2 C,2 | %9
 ED/C/ B,/A,/G,/F,/ E,D, | C,2 C,2 C,2 | GF/E/ D/C/B,/A,/ G,F, | C,2 C,2 C,2 | %13
 GF/E/ D/C/B,/A,/ G,/F,/G,/A,/ | G,2 G,2 G,2 | A/A/A/A/ A/A/A/A/ GF | !^!E2 !^!E2 !^!E2 |: %17
 E,2 E,2 E,2 | E,,/D,,/C,,/D,,/ B,,,C,, D,,E,, | F,,2 F,,2 F,,2 | F,,/E,,/D,,/E,,/ C,,D,, E,,F,, | %21
 G,,2 G,,2 G,,2 | _G,,/=G,,/A,,/=A,,/ B,,/=B,,/C,/_D,/ =D,E, | D2 D2 D2 | %24
 G,,/=A,,/=B,,/C,/ D,/E,/F,/G,/ E,D, | C,2 C,2 C,2 | ED/C/ B,/A,/G,/F,/ E,D, | C,2 C,2 C,2 | %28
 GF/E/ D/C/B,/A,/ G,/F,/E,/D,/ | C,2 C,2 C,2 | e/d/_d/c/ =B/_B/=A/_A/ G/_G/F/=E/ | %31
 E/D/_D/C/ =B,/_B,/=A,/_A,/ G,G | C>C, C,4 :|[K:C]!p! z .G, .E,.G, .C,.E, | z .G, .D,.G, .B,,.D, | %35
 z .G, .C,.G, .A,,.C, | z .G, .B,,.G, .G,,.B,, | z .G, .E,.G, .C,.E, | z .G, .D,.G, .B,,.D, | %39
 z .G, .C,.G, .A,,.C, | z .G, .B,,.G, .G,,.B,, | z .C, .E,.G, .C.C, | z .F,, .A,,.C, .F,.F,, | %43
 z .B,, .D,.F, .B,.B,, | z .E,, ._A,,.B,, .E,.E,, | z .A,, ._D,.E, .A,.A,, | %46
 z .D,, ._E,,.=E,, .F,,._G,, | z G,, z C, z D, | G,,6 | ._E,2 z2 z2 | .B,,2 z2 z2 | ._A,,2 z2 z2 | %52
 .G,,2 z2 z2 | z .G, ._G,.=G, ._E,.C, | z ._A,, .G,,.A,, .C,._E, | z ._A, .G,.A, .F,._D, | %56
 z ._A,, .G,,.A,, .C,._E, |"_cresc." z ._A,, .G,,.A,, .C,,._A,,, | z ._A,, .G,,.A,, ._D,,._A,,, | %59
 z ._A,, .G,,.A,, ._E,,._A,,, |!mf! G,,,6- | G,,,G,,,/_A,,,/ =A,,,/_B,,,/=B,,,/C,,/ _D,,=D,, | %62
 AG/F/ E/D/C/B,/ A,G, | F,G,,,/_A,,,/ =A,,,/_B,,,/=B,,,/C,,/ _D,,=D,, | %64
"_cresc." _GG,,,/_A,,,/ =A,,,/_B,,,/=B,,,/C,,/ D,,_E,, | %65
 GG,,,/_A,,,/ =A,,,/_B,,,/=B,,,/C,,/ _E,,=E,, | _AG,,,/A,,,/ B,,,/C,,/D,,/E,,/ F,,/G,,/A,,/B,,/ | %67
!ff! C,2 C,2 C,2 | ED/C/ B,/A,/G,/F,/ E,D, | C,2 C,2 C,2 | GF/E/ D/C/B,/A,/ G,/F,/E,/D,/ | %71
 C,2 C,2 C,2 | ed/c/ B/A/G/F/ ED/C/ | B,/_A,/G,/F,/ E,D, C,2- | C,6 |[K:F]!p! z2 B,4 | z2 A,4 | %77
 z2 D4 | z2 A,4 | z2 B,4 | z2 A,4 | G,,4 C,2 | z6 | z6 | z6 | z6 | z6 | z6 | z6 | z6 | z6 | %91
 z2 G,4 | z2 F,4 | z2 B,4 | A,4 z2 | z2 B,4 | z2 A,4 |"_dim." G,,4 C,2 |!pp! z6 | z6 | z6 | z6 | %102
[M:4/4] z8 |[M:3/4] z6 | z6 | z6 | z6 | C6 | D4 z2 | z6 | z6 | F,,6 | F,,6 | z6 | z6 | z6 | z6 | %117
 z6 | z6 | z6 |[K:Eb] z6 | z6 | z6 | z6 |"_cresc." z6 | %125
 D,,/_D,,/C,,/=B,,,/ _B,,,/A,,,/A,,,/G,,,/ F,,,E,,, | z6 | z6 |!ff! z6 | z6 | z6 | z6 | z6 | z6 | %134
 z6 | .C3/2 z/4 B,/4 B,4 | .A,3/2 z/4 F/4 F4 | E2 z2 z2 | z2 z2 (3=B,/A,/G,/(3F,/E,/D,/ | %139
!f! CC,,/D,,/ =E,,/F,,/G,,/A,,/ B,,/C,/D,/=E,/ | F,=B,,/C,/ D,/E,/F,/G,/ =A,/=B,/C/D/ | %141
 F/E/D/C/ D/C/B,/A,/ B,/A,/G,/F,/ | %142
 (3G/F/E/(3D/C/=B,/ (3C/_B,/A,/(3G,/F,/E,/ (3G,/F,/E,/(3_D,/C,/B,,/ | %143
!pp! A,A,,,/=A,,,/ B,,,/=B,,,/C,,/_D,,/ =D,,/E,,/C,,/_A,,,/ | A,>=A, _A,>G, _G,>E, | %145
 =E,A,,,/=A,,,/ B,,,/=B,,,/C,,/_D,,/ E,,/=E,,/D,,/_A,,,/ | E>=E _E>D _D>B, | %147
 CA,,/A,,/ A,,/A,,/A,,/A,,/ A,,[A,,C,]/[A,,C,]/ |"_cresc." z6 | z6 |!mf! z6 |"_cresc." z6 | %152
!f! z2 (3FDG, (3A,G,_G, | (9:8:9F,3/4D,3/4G,,3/4 A,,3/4G,,3/4_G,,3/4 F,,3/4D,,3/4=G,,3/4 | %154
 (3A,,G,,_G,, (3F,,C,,=G,, B,,=A,, | !^!A,,G,, _G,,F,, =B,,,G,, | %156
!fff! C,,B,,,/A,,,/ G,,=A,,/=B,,/ C,_B,,/_A,,/ | G,,=A,,/=B,,/ C,_B,,/_A,,/ G,,=A,,,/=B,,,/ | %158
 C,,D,/=E,/ F,/G,/=A,/=B,/ CD/=E/ | z6 | !fermata!C,,6 |] %161
V:13
!f! C,,2 C,,2 C,,2 | E,D,/C,/ B,,/A,,/G,,/F,,/ E,,D,, | C,,2 C,,2 C,,2 | ED/C/ B,/A,/G,/F,/ E,D, | %4
 C,,2 C,,2 C,,2 | ED/C/ B,/A,/G,/F,/ E,B,, | [E,,B,,E,]2 [E,,B,,E,]2 [E,,B,,E,]2 | %7
 [F,A,C]/[F,A,C]/[F,A,C]/[F,A,C]/ [F,A,C]/[F,A,C]/[F,A,C]/[F,A,C]/ [G,=B,][G,B,] | C,,2 C,,2 C,,2 | %9
 E,D,/C,/ B,,/A,,/G,,/F,,/ E,,D,, | C,,2 C,,2 C,,2 | ED/C/ B,/A,/G,/F,/ E,D, | C,,2 C,,2 C,,2 | %13
 ED/C/ B,/A,/G,/F,/ E,/D,/E,/F,/ | [E,,B,,E,]2 [E,,B,,E,]2 [E,,B,,E,]2 | %15
 [F,CD]/[F,CD]/[F,CD]/[F,CD]/ [F,CD]/[F,CD]/[F,CD]/[F,CD]/ [G,=B,][G,B,] | %16
 !^![C,G,]2 !^![C,G,]2 !^![C,G,]2 |: E,,2 E,,2 E,,2 | z6 | z6 | z6 | z6 | z6 | %23
 [D,G,B,]2 [D,G,=A,]2 [D,_G,A,]2 | [G,,,=B,,,D,,]/=A,,,/B,,,/C,,/ D,,/E,,/F,,/G,,/ E,,D,, | %25
 [C,,E,,G,,]2 [C,,F,,A,,]2 [C,,D,,F,,]2 | [E,G,C]D,/C,/ B,,/A,,/G,,/F,,/ E,,D,, | %27
 [C,,E,,G,,]2 [C,,F,,A,,]2 [C,,D,,F,,]2 | [G,CE]F,/E,/ D,/C,/B,,/A,,/ G,,/F,,/E,,/D,,/ | %29
 [C,,E,,G,,]2 [C,,F,,A,,]2 [C,,D,,F,,]2 | [E_G=A]/D/_D/C/ =B,/_B,/=A,/_A,/ G,/_G,/F,/=E,/ | %31
 E,/D,/_D,/C,/ =B,,/_B,,/=A,,/_A,,/ [G,,C,E,][G,=B,D] | [C,E,G,]>[C,,E,,G,,] [C,,E,,G,,]4 :| %33
[K:C] z6 | z6 | z6 | z6 | z6 | z6 | z6 | z6 | z6 | z6 | z6 | z6 | z6 | z6 | z6 | z6 | .C,2 z2 z2 | %50
 z6 | z6 | z6 | z6 | z6 | z6 | z6 | z6 | z6 | z6 | z6 | z6 | [G,B,DF]E/D/ C/B,/A,/G,/ F,E, | %63
 .D,2 z2 z2 | ._E2 z2 z2 | .E2 z2 z2 | .F2 z2 z2 | [C,,E,,G,,]2 [C,,F,,_A,,]2 [C,,D,,F,,]2 | %68
 [E,G,C]D,/C,/ B,,/A,,/G,,/F,,/ E,,D,, | [C,,E,,G,,]2 [C,,F,,_A,,]2 [C,,D,,F,,]2 | %70
 [G,CE]F,/E,/ D,/C,/B,,/A,,/ G,,/F,,/E,,/D,,/ | [C,,E,,G,,]2 [C,,F,,_A,,]2 [C,,D,,F,,]2 | %72
 [EGc]D/C/ B,/A,/G,/F,/ [E,F,_A,C]D,/C,/ | B,,/_A,,/G,,/F,,/ [E,,G,,C,]D,, C,,2- | C,,6 | %75
[K:F] z2 [E,G,]4 | z2 F,4 | z2 B,4 | z2 F,4 | z2 [E,G,]4 | z2 F,4 | z6 | z6 | z6 | z6 | z6 | z6 | %87
 z6 | z6 | z6 | z6 | z2 [_D,E,]4 | z2 D,4 | z2 [E,G,]4 | F,4 z2 | z2 [E,G,]4 | z2 F,4 | z6 | %98
!pp! z6 | z6 | z6 | z6 |[M:4/4] z8 |[M:3/4] z6 | z6 | z6 | z6 | [F,A,]6 | [F,B,]4 z2 | z6 | z6 | %111
 z6 | z6 | z6 | z6 | z6 | z6 | z6 | z6 | z6 |[K:Eb] z6 | z6 | z6 | z6 | z6 | z6 | z6 | z6 | z6 | %129
 z6 | z6 | z6 | z6 | z6 | z6 | .[C,E,G,]3/2 z/4 [C,G,]/4 [C,G,]4 | .[C,F,]3/2 z/4 [G,D]/4 [G,D]4 | %137
 [C,G,C]2 z2 z2 | z2 z2 .G,2 | .[C,E,G,]2 z2 z2 | z6 | z6 | .[G,CE]2 .[C,E,]2 .[G,,B,,_D,]2 | %143
 .[A,,C,E,]2 z2 z2 | [C,E,_G,]>[C,E,G,A,] [E,G,]>[E,F,] z2 | .[A,,_D,]2 z2 z2 | %146
 [G,B,_D]>[G,B,DE] [B,D]>B, z2 | A,A,,,/B,,,/ C,,/_D,,/=D,,/E,,/ =E,,/G,,/_E,,/A,,,/ | z6 | z6 | %150
 z6 | z6 | z2 (3F,D,G,, (3[A,,=B,,D,F,]G,,_G,, | %153
 (9:8:9F,,3/4D,,3/4G,,,3/4 [A,,,=B,,,D,,F,,]3/4G,,,3/4_G,,,3/4 F,,,3/4D,,,3/4=G,,,3/4 | %154
 (3[A,,,C,,F,,]G,,,_G,,, (3F,,,C,,,=G,,, [B,,,_D,,F,,][=A,,,D,,F,,] | %155
 !^![A,,,_D,,F,,][G,,,A,,,D,,] [_G,,,A,,,D,,][F,,,A,,,D,,] [=B,,,,_D,,,A,,,][G,,,=B,,,=D,,F,,] | %156
 .C,,,2 .G,,,2 .C,,2 | .G,,,2 .C,,2 .G,,,2 | %158
 [C,,,=E,,,G,,,]D,,/=E,,/ F,,/G,,/=A,,/=B,,/ [C,D,F,A,]D,/=E,/ | z6 | !fermata![C,,,=E,,,G,,,]6 |] %161

